X:0228
M:2/4
L:1/8
Q:1/4=120
K:G
  GBAG            | d2       Bd   | edcB      | A3                :|
d|ec       AB/c/  | d>BGd         |cBAG       |(A/G/)(F/E/) D(B/c/)|\
 .d(B/c/) .d(A/B/)|.c(A/B/) .cd/c/|B/A/G/A/ BA| G3                :|

